X: 40
T:Villagers,The,1st part. JNu.24
M:6/8
L:1/8
Q:100
S:James Nuttall MS,c1830,Rossendale,East Lancs.
R:Jig
O:England
A:East Lancashire
Z:vmp.Manchester Morris Men
K:Bb
"primo"d2d e2e|fdB cAF|B2B cBc|ded c3|!
d2d e2e|fdB cAF|B2B c2d|ecA B3:|!
|:d2f fgf|b2f fgf|d2d def|fed c3|!
d2f fgf|b2f fgf|Bcd dcB|cBc B3:|]
